src/icons/icons_set_01/041-lit.svg

<svg height="50" viewBox="0 0 50 50" width="50" xmlns="http://www.w3.org/2000/svg"><g transform="translate(3.995 6.495595)"><path d="m2.66563452 1.14777321c0-.54274896-.43998496-.98273392-.98273392-.98273392h-.65515596c-.54274896 0-.98273393.43998496-.98273393.98273392v34.71326309c0 .542749.43998497.9827339.98273393.9827339h.65515596c.54274896 0 .98273392-.4399849.98273392-.9827339v-4.2510119h10.47999468v-2.625625h-10.47999468v-5.2287446h10.47999468v-2.6306262h-10.47999468zm38.31662088 9.50226189h-.655156c-.5427489 0-.9827339.439985-.9827339.9827339v24.2332685c0 .5427489.439985.9827339.9827339.9827339h.655156c.5427489 0 .9827339-.439985.9827339-.9827339v-24.2382696c0-.542749-.439985-.982734-.9827339-.982734zm-30.45725 2.6156226h-2.61812326c-2.62062381 0-2.62062381 2.6181233-2.62062381 2.6181233v2.6206238h7.85937087v-2.6206238c0-2.6181233-2.6206238-2.6181233-2.6206238-2.6181233z"/><path d="m34.1031179 12.2656577c.4688482 0 1.1021095.1054429 1.757184.4326676 1.1466319.5727689 1.8634398 1.6469548 1.8634398 3.1854557v13.1006184c0 .4689652-.1055647 1.1023533-.4331508 1.7575255-.5732618 1.1465236-1.6481239 1.8630983-3.187473 1.8630983h-19.3368649v-16.7212422c0-.4686527.1054865-1.1015719.4328382-1.7562753.5728711-1.1457421 1.6470298-1.861848 3.185285-1.861848zm-17.3368649 18.3393655h17.3368649c.7536966 0 1.1529355-.2661592 1.3986186-.7575255.1637809-.3275617.2220052-.6769076.2220052-.8630983v-13.1006184c0-.752357-.2659261-1.1508654-.7571841-1.39626-.3276594-.1636734-.6771321-.2218633-.8634397-.2218633h-15.7187417c-.7526027 0-1.1511382.2656904-1.3964306.7562752-.1635465.3270929-.2216926.6759699-.2216926.8618481z"/></g></svg>

<?xml version="1.0" encoding="UTF-8"?>
<svg width="50px" height="50px" viewBox="0 0 50 50" version="1.1" xmlns="http://www.w3.org/2000/svg" xmlns:xlink="http://www.w3.org/1999/xlink">
    <!-- Generator: Sketch 52.2 (67145) - http://www.bohemiancoding.com/sketch -->
    <title>041-lit</title>
    <desc>Created with Sketch.</desc>
    <g id="041-lit" stroke="none" stroke-width="1" fill="none" fill-rule="evenodd">
        <g id="Group" transform="translate(3.995000, 6.495595)" fill="#000000" fill-rule="nonzero">
            <g id="000-lit">
                <g id="ICONSET-01">
                    <g id="000-lit">
                        <path d="M2.66563452,1.14777321 C2.66563452,0.605024252 2.22564956,0.165039286 1.6829006,0.165039286 L1.02774464,0.165039286 C0.48499568,0.165039286 0.0450107143,0.605024252 0.0450107143,1.14777321 L0.0450107143,35.8610363 C0.0450107143,36.4037853 0.48499568,36.8437702 1.02774464,36.8437702 L1.6829006,36.8437702 C2.22564956,36.8437702 2.66563452,36.4037853 2.66563452,35.8610363 L2.66563452,31.6100244 L13.1456292,31.6100244 L13.1456292,28.9843994 L2.66563452,28.9843994 L2.66563452,23.7556548 L13.1456292,23.7556548 L13.1456292,21.1250286 L2.66563452,21.1250286 L2.66563452,1.14777321 Z M40.9822554,10.6500351 L40.3270994,10.6500351 C39.7843505,10.6500351 39.3443655,11.0900201 39.3443655,11.632769 L39.3443655,35.8660375 C39.3443655,36.4087864 39.7843505,36.8487714 40.3270994,36.8487714 L40.9822554,36.8487714 C41.5250043,36.8487714 41.9649893,36.4087864 41.9649893,35.8660375 L41.9649893,11.6277679 C41.9649893,11.0850189 41.5250043,10.6450339 40.9822554,10.6450339 L40.9822554,10.6500351 Z M10.5250054,13.2656577 L7.90688214,13.2656577 C5.28625833,13.2656577 5.28625833,15.883781 5.28625833,15.883781 L5.28625833,18.5044048 L13.1456292,18.5044048 L13.1456292,15.883781 C13.1456292,13.2656577 10.5250054,13.2656577 10.5250054,13.2656577 Z" id="Shape"></path>
                        <path d="M34.1031179,12.2656577 C34.5719661,12.2656577 35.2052274,12.3711006 35.8603019,12.6983253 C37.0069338,13.2710942 37.7237417,14.3452801 37.7237417,15.883781 L37.7237417,28.9843994 C37.7237417,29.4533646 37.618177,30.0867527 37.2905909,30.7419249 C36.7173291,31.8884485 35.642467,32.6050232 34.1031179,32.6050232 L14.766253,32.6050232 L14.766253,15.883781 C14.766253,15.4151283 14.8717395,14.7822091 15.1990912,14.1275057 C15.7719623,12.9817636 16.846121,12.2656577 18.3843762,12.2656577 L34.1031179,12.2656577 Z M16.766253,30.6050232 L34.1031179,30.6050232 C34.8568145,30.6050232 35.2560534,30.338864 35.5017365,29.8474977 C35.6655174,29.519936 35.7237417,29.1705901 35.7237417,28.9843994 L35.7237417,15.883781 C35.7237417,15.131424 35.4578156,14.7329156 34.9665576,14.487521 C34.6388982,14.3238476 34.2894255,14.2656577 34.1031179,14.2656577 L18.3843762,14.2656577 C17.6317735,14.2656577 17.233238,14.5313481 16.9879456,15.0219329 C16.8243991,15.3490258 16.766253,15.6979028 16.766253,15.883781 L16.766253,30.6050232 Z" id="Shape-path"></path>
                    </g>
                </g>
            </g>
        </g>
    </g>
</svg>
